src/apps/scalable/floppy-alt.svg

<?xml version="1.0" encoding="UTF-8" standalone="no"?>
<svg
   xmlns:dc="http://purl.org/dc/elements/1.1/"
   xmlns:cc="http://creativecommons.org/ns#"
   xmlns:rdf="http://www.w3.org/1999/02/22-rdf-syntax-ns#"
   xmlns:svg="http://www.w3.org/2000/svg"
   xmlns="http://www.w3.org/2000/svg"
   xmlns:xlink="http://www.w3.org/1999/xlink"
   xmlns:sodipodi="http://sodipodi.sourceforge.net/DTD/sodipodi-0.dtd"
   xmlns:inkscape="http://www.inkscape.org/namespaces/inkscape"
   width="128"
   height="128"
   viewBox="0 0 33.866666 33.866668"
   version="1.1"
   id="svg1829"
   inkscape:version="1.0.2 (e86c870879, 2021-01-15)"
   sodipodi:docname="floppy-alt.svg">
  <defs
     id="defs1823">
    <linearGradient
       inkscape:collect="always"
       id="linearGradient892">
      <stop
         style="stop-color:#f3f2f1;stop-opacity:1;"
         offset="0"
         id="stop888" />
      <stop
         style="stop-color:#d5d6d7;stop-opacity:1"
         offset="1"
         id="stop890" />
    </linearGradient>
    <linearGradient
       inkscape:collect="always"
       id="linearGradient884">
      <stop
         style="stop-color:#5d5f61;stop-opacity:1"
         offset="0"
         id="stop880" />
      <stop
         style="stop-color:#343637;stop-opacity:1"
         offset="1"
         id="stop882" />
    </linearGradient>
    <radialGradient
       inkscape:collect="always"
       xlink:href="#linearGradient884"
       id="radialGradient886"
       cx="17.309874"
       cy="2.5295613"
       fx="17.309874"
       fy="2.5295613"
       r="14.54372"
       gradientUnits="userSpaceOnUse"
       gradientTransform="matrix(7.161795,0,0,1.7510995,-106.65989,-1.8999525)" />
    <linearGradient
       inkscape:collect="always"
       xlink:href="#linearGradient892"
       id="linearGradient894"
       x1="58.123119"
       y1="31.301651"
       x2="58.123119"
       y2="114.21466"
       gradientUnits="userSpaceOnUse" />
  </defs>
  <sodipodi:namedview
     id="base"
     pagecolor="#ffffff"
     bordercolor="#666666"
     borderopacity="1.0"
     inkscape:pageopacity="0.0"
     inkscape:pageshadow="2"
     inkscape:zoom="0.70000001"
     inkscape:cx="-632.32495"
     inkscape:cy="-54.058039"
     inkscape:document-units="mm"
     inkscape:current-layer="layer1"
     inkscape:document-rotation="0"
     showgrid="false"
     units="px"
     inkscape:window-width="1920"
     inkscape:window-height="1024"
     inkscape:window-x="0"
     inkscape:window-y="24"
     inkscape:window-maximized="1" />
  <metadata
     id="metadata1826">
    <rdf:RDF>
      <cc:Work
         rdf:about="">
        <dc:format>image/svg+xml</dc:format>
        <dc:type
           rdf:resource="http://purl.org/dc/dcmitype/StillImage" />
        <dc:title></dc:title>
      </cc:Work>
    </rdf:RDF>
  </metadata>
  <g
     inkscape:label="Capa 1"
     inkscape:groupmode="layer"
     id="layer1">
    <g
       id="g1702"
       transform="matrix(0.97573206,0,0,0.97573206,-65.58674,-37.192363)"
       style="opacity:0.296765">
      <rect
         style="fill:none;fill-opacity:1;stroke:#000000;stroke-width:0.1;stroke-linecap:round;stroke-linejoin:round;stroke-miterlimit:4;stroke-dasharray:none;stroke-opacity:0.02"
         id="rect1634"
         width="29.810888"
         height="29.810888"
         x="69.839508"
         y="40.709618"
         rx="6.6098609"
         ry="6.6098609" />
      <rect
         ry="6.6098609"
         rx="6.6098609"
         y="40.709618"
         x="69.839508"
         height="29.810888"
         width="29.810888"
         id="rect1638"
         style="fill:none;fill-opacity:1;stroke:#000000;stroke-width:0.2;stroke-linecap:round;stroke-linejoin:round;stroke-miterlimit:4;stroke-dasharray:none;stroke-opacity:0.02" />
      <rect
         style="fill:none;fill-opacity:1;stroke:#000000;stroke-width:0.3;stroke-linecap:round;stroke-linejoin:round;stroke-miterlimit:4;stroke-dasharray:none;stroke-opacity:0.02"
         id="rect1640"
         width="29.810888"
         height="29.810888"
         x="69.839508"
         y="40.709618"
         rx="6.6098609"
         ry="6.6098609" />
      <rect
         ry="6.6098609"
         rx="6.6098609"
         y="40.709618"
         x="69.839508"
         height="29.810888"
         width="29.810888"
         id="rect1642"
         style="fill:none;fill-opacity:1;stroke:#000000;stroke-width:0.4;stroke-linecap:round;stroke-linejoin:round;stroke-miterlimit:4;stroke-dasharray:none;stroke-opacity:0.02" />
      <rect
         style="fill:none;fill-opacity:1;stroke:#000000;stroke-width:0.5;stroke-linecap:round;stroke-linejoin:round;stroke-miterlimit:4;stroke-dasharray:none;stroke-opacity:0.02"
         id="rect1644"
         width="29.810888"
         height="29.810888"
         x="69.839508"
         y="40.709618"
         rx="6.6098609"
         ry="6.6098609" />
      <rect
         ry="6.6098609"
         rx="6.6098609"
         y="40.709618"
         x="69.839508"
         height="29.810888"
         width="29.810888"
         id="rect1646"
         style="fill:none;fill-opacity:1;stroke:#000000;stroke-width:0.6;stroke-linecap:round;stroke-linejoin:round;stroke-miterlimit:4;stroke-dasharray:none;stroke-opacity:0.02" />
      <rect
         style="fill:none;fill-opacity:1;stroke:#000000;stroke-width:0.7;stroke-linecap:round;stroke-linejoin:round;stroke-miterlimit:4;stroke-dasharray:none;stroke-opacity:0.02"
         id="rect1648"
         width="29.810888"
         height="29.810888"
         x="69.839508"
         y="40.709618"
         rx="6.6098609"
         ry="6.6098609" />
      <rect
         ry="6.6098609"
         rx="6.6098609"
         y="40.709618"
         x="69.839508"
         height="29.810888"
         width="29.810888"
         id="rect1650"
         style="fill:none;fill-opacity:1;stroke:#000000;stroke-width:0.8;stroke-linecap:round;stroke-linejoin:round;stroke-miterlimit:4;stroke-dasharray:none;stroke-opacity:0.02" />
      <rect
         style="fill:none;fill-opacity:1;stroke:#000000;stroke-width:1;stroke-linecap:round;stroke-linejoin:round;stroke-miterlimit:4;stroke-dasharray:none;stroke-opacity:0.02"
         id="rect1652"
         width="29.810888"
         height="29.810888"
         x="69.839508"
         y="40.709618"
         rx="6.6098609"
         ry="6.6098609" />
      <rect
         ry="6.6098609"
         rx="6.6098609"
         y="40.709618"
         x="69.839508"
         height="29.810888"
         width="29.810888"
         id="rect1654"
         style="fill:none;fill-opacity:1;stroke:#000000;stroke-width:1.2;stroke-linecap:round;stroke-linejoin:round;stroke-miterlimit:4;stroke-dasharray:none;stroke-opacity:0.02" />
      <rect
         style="fill:none;fill-opacity:1;stroke:#000000;stroke-width:1.4;stroke-linecap:round;stroke-linejoin:round;stroke-miterlimit:4;stroke-dasharray:none;stroke-opacity:0.02"
         id="rect1656"
         width="29.810888"
         height="29.810888"
         x="69.839508"
         y="40.709618"
         rx="6.6098609"
         ry="6.6098609" />
      <rect
         ry="6.6098609"
         rx="6.6098609"
         y="40.709618"
         x="69.839508"
         height="29.810888"
         width="29.810888"
         id="rect1658"
         style="fill:none;fill-opacity:1;stroke:#000000;stroke-width:1.6;stroke-linecap:round;stroke-linejoin:round;stroke-miterlimit:4;stroke-dasharray:none;stroke-opacity:0.02" />
      <rect
         style="fill:none;fill-opacity:1;stroke:#000000;stroke-width:1.8;stroke-linecap:round;stroke-linejoin:round;stroke-miterlimit:4;stroke-dasharray:none;stroke-opacity:0.02"
         id="rect1660"
         width="29.810888"
         height="29.810888"
         x="69.839508"
         y="40.709618"
         rx="6.6098609"
         ry="6.6098609" />
      <rect
         ry="6.6098609"
         rx="6.6098609"
         y="40.709618"
         x="69.839508"
         height="29.810888"
         width="29.810888"
         id="rect1662"
         style="fill:none;fill-opacity:1;stroke:#000000;stroke-width:2;stroke-linecap:round;stroke-linejoin:round;stroke-miterlimit:4;stroke-dasharray:none;stroke-opacity:0.02" />
      <rect
         style="fill:none;fill-opacity:1;stroke:#000000;stroke-width:2.2;stroke-linecap:round;stroke-linejoin:round;stroke-miterlimit:4;stroke-dasharray:none;stroke-opacity:0.02"
         id="rect1664"
         width="29.810888"
         height="29.810888"
         x="69.839508"
         y="40.709618"
         rx="6.6098609"
         ry="6.6098609" />
      <rect
         ry="6.6098609"
         rx="6.6098609"
         y="40.709618"
         x="69.839508"
         height="29.810888"
         width="29.810888"
         id="rect1666"
         style="fill:none;fill-opacity:1;stroke:#000000;stroke-width:2.6;stroke-linecap:round;stroke-linejoin:round;stroke-miterlimit:4;stroke-dasharray:none;stroke-opacity:0.02" />
      <rect
         style="fill:none;fill-opacity:1;stroke:#000000;stroke-width:3;stroke-linecap:round;stroke-linejoin:round;stroke-miterlimit:4;stroke-dasharray:none;stroke-opacity:0.02"
         id="rect1668"
         width="29.810888"
         height="29.810888"
         x="69.839508"
         y="40.709618"
         rx="6.6098609"
         ry="6.6098609" />
      <rect
         ry="6.6098609"
         rx="6.6098609"
         y="40.709618"
         x="69.839508"
         height="29.810888"
         width="29.810888"
         id="rect1670"
         style="fill:none;fill-opacity:1;stroke:#000000;stroke-width:3.4;stroke-linecap:round;stroke-linejoin:round;stroke-miterlimit:4;stroke-dasharray:none;stroke-opacity:0.02" />
      <rect
         style="fill:none;fill-opacity:1;stroke:#000000;stroke-width:3.8;stroke-linecap:round;stroke-linejoin:round;stroke-miterlimit:4;stroke-dasharray:none;stroke-opacity:0.02"
         id="rect1672"
         width="29.810888"
         height="29.810888"
         x="69.839508"
         y="40.709618"
         rx="6.6098609"
         ry="6.6098609" />
      <rect
         ry="6.6098609"
         rx="6.6098609"
         y="40.709618"
         x="69.839508"
         height="29.810888"
         width="29.810888"
         id="rect1674"
         style="fill:none;fill-opacity:1;stroke:#000000;stroke-width:4.2;stroke-linecap:round;stroke-linejoin:round;stroke-miterlimit:4;stroke-dasharray:none;stroke-opacity:0.02" />
      <rect
         style="fill:none;fill-opacity:1;stroke:#000000;stroke-width:4.6;stroke-linecap:round;stroke-linejoin:round;stroke-miterlimit:4;stroke-dasharray:none;stroke-opacity:0.02"
         id="rect1676"
         width="29.810888"
         height="29.810888"
         x="69.839508"
         y="40.709618"
         rx="6.6098609"
         ry="6.6098609" />
      <rect
         ry="6.6098609"
         rx="6.6098609"
         y="40.709618"
         x="69.839508"
         height="29.810888"
         width="29.810888"
         id="rect1678"
         style="fill:none;fill-opacity:1;stroke:#000000;stroke-width:5;stroke-linecap:round;stroke-linejoin:round;stroke-miterlimit:4;stroke-dasharray:none;stroke-opacity:0.02" />
    </g>
    <rect
       style="fill:url(#radialGradient886);fill-opacity:1;stroke-width:2.68769;stroke-linecap:round;stroke-linejoin:round"
       id="rect849-5"
       width="29.08744"
       height="29.08744"
       x="2.5579116"
       y="2.5293181"
       rx="6.4494534"
       ry="6.4494534" />
    <path
       id="path870"
       style="fill:#000000;stroke-width:11.3386;stroke-linecap:square;stroke-linejoin:round;fill-opacity:0.26910514"
       d="M 31.111863,9.5605469 V 39.349609 l 29.008549,0 c 2.937339,0 5.302734,-2.365394 5.302734,-5.302734 V 9.5605469 Z"
       transform="scale(0.26458333)"
       sodipodi:nodetypes="ccsscc" />
    <path
       id="rect859"
       style="fill:url(#linearGradient894);stroke-width:11.3386;stroke-linecap:square;stroke-linejoin:round;fill-opacity:1"
       d="M 49.085938 9.5605469 L 49.085938 39.349609 L 85.921875 39.349609 C 88.859214 39.349609 91.224609 36.984215 91.224609 34.046875 L 91.224609 9.5605469 L 49.085938 9.5605469 z M 33.160156 75.390625 C 28.462157 75.390625 24.681641 79.173095 24.681641 83.871094 L 24.681641 117.64258 C 27.561739 118.83509 30.721875 119.49609 34.042969 119.49609 L 95.228516 119.49609 C 98.55017 119.49609 101.71131 118.83548 104.5918 117.64258 L 104.5918 83.871094 C 104.5918 79.173095 100.80933 75.390625 96.111328 75.390625 L 33.160156 75.390625 z M 16.896484 92.617188 C 15.254769 92.617187 13.931641 93.938363 13.931641 95.580078 L 13.931641 101.50781 C 13.931641 103.14953 15.254769 104.4707 16.896484 104.4707 C 18.5382 104.4707 19.859375 103.14953 19.859375 101.50781 L 19.859375 95.580078 C 19.859375 93.938363 18.5382 92.617188 16.896484 92.617188 z M 112.12695 92.617188 C 110.48524 92.617187 109.16406 93.938363 109.16406 95.580078 L 109.16406 101.50781 C 109.16406 103.14953 110.48524 104.4707 112.12695 104.4707 C 113.76867 104.4707 115.08984 103.14953 115.08984 101.50781 L 115.08984 95.580078 C 115.08984 93.938363 113.76867 92.617188 112.12695 92.617188 z "
       transform="scale(0.26458333)" />
    <rect
       style="fill:#545658;fill-opacity:1;stroke-width:3;stroke-linecap:square;stroke-linejoin:round"
       id="rect872"
       width="2.1629233"
       height="4.5594807"
       x="20.440668"
       y="4.518342"
       rx="0"
       ry="0" />
  </g>
</svg>

<?xml version="1.0" encoding="UTF-8"?>
<svg id="svg1829" width="128" height="128" version="1.1" viewBox="0 0 33.867 33.867" xmlns="http://www.w3.org/2000/svg" xmlns:cc="http://creativecommons.org/ns#" xmlns:dc="http://purl.org/dc/elements/1.1/" xmlns:rdf="http://www.w3.org/1999/02/22-rdf-syntax-ns#" xmlns:xlink="http://www.w3.org/1999/xlink">
 <defs id="defs1823">
  <radialGradient id="radialGradient886" cx="17.31" cy="2.5296" r="14.544" gradientTransform="matrix(7.1618 0 0 1.7511 -106.66 -1.9)" gradientUnits="userSpaceOnUse">
   <stop id="stop880" stop-color="#5d5f61" offset="0"/>
   <stop id="stop882" stop-color="#343637" offset="1"/>
  </radialGradient>
  <linearGradient id="linearGradient894" x1="58.123" x2="58.123" y1="31.302" y2="114.21" gradientUnits="userSpaceOnUse">
   <stop id="stop888" stop-color="#f3f2f1" offset="0"/>
   <stop id="stop890" stop-color="#d5d6d7" offset="1"/>
  </linearGradient>
 </defs>
 <metadata id="metadata1826">
  <rdf:RDF>
   <cc:Work rdf:about="">
    <dc:format>image/svg+xml</dc:format>
    <dc:type rdf:resource="http://purl.org/dc/dcmitype/StillImage"/>
    <dc:title/>
   </cc:Work>
  </rdf:RDF>
 </metadata>
 <g id="layer1" stroke-linejoin="round">
  <g id="g1702" transform="matrix(.97573 0 0 .97573 -65.587 -37.192)" fill="none" opacity=".29676" stroke="#000" stroke-linecap="round" stroke-opacity=".02">
   <rect id="rect1634" x="69.84" y="40.71" width="29.811" height="29.811" rx="6.6099" ry="6.6099" stroke-width=".1"/>
   <rect id="rect1638" x="69.84" y="40.71" width="29.811" height="29.811" rx="6.6099" ry="6.6099" stroke-width=".2"/>
   <rect id="rect1640" x="69.84" y="40.71" width="29.811" height="29.811" rx="6.6099" ry="6.6099" stroke-width=".3"/>
   <rect id="rect1642" x="69.84" y="40.71" width="29.811" height="29.811" rx="6.6099" ry="6.6099" stroke-width=".4"/>
   <rect id="rect1644" x="69.84" y="40.71" width="29.811" height="29.811" rx="6.6099" ry="6.6099" stroke-width=".5"/>
   <rect id="rect1646" x="69.84" y="40.71" width="29.811" height="29.811" rx="6.6099" ry="6.6099" stroke-width=".6"/>
   <rect id="rect1648" x="69.84" y="40.71" width="29.811" height="29.811" rx="6.6099" ry="6.6099" stroke-width=".7"/>
   <rect id="rect1650" x="69.84" y="40.71" width="29.811" height="29.811" rx="6.6099" ry="6.6099" stroke-width=".8"/>
   <rect id="rect1652" x="69.84" y="40.71" width="29.811" height="29.811" rx="6.6099" ry="6.6099"/>
   <rect id="rect1654" x="69.84" y="40.71" width="29.811" height="29.811" rx="6.6099" ry="6.6099" stroke-width="1.2"/>
   <rect id="rect1656" x="69.84" y="40.71" width="29.811" height="29.811" rx="6.6099" ry="6.6099" stroke-width="1.4"/>
   <rect id="rect1658" x="69.84" y="40.71" width="29.811" height="29.811" rx="6.6099" ry="6.6099" stroke-width="1.6"/>
   <rect id="rect1660" x="69.84" y="40.71" width="29.811" height="29.811" rx="6.6099" ry="6.6099" stroke-width="1.8"/>
   <rect id="rect1662" x="69.84" y="40.71" width="29.811" height="29.811" rx="6.6099" ry="6.6099" stroke-width="2"/>
   <rect id="rect1664" x="69.84" y="40.71" width="29.811" height="29.811" rx="6.6099" ry="6.6099" stroke-width="2.2"/>
   <rect id="rect1666" x="69.84" y="40.71" width="29.811" height="29.811" rx="6.6099" ry="6.6099" stroke-width="2.6"/>
   <rect id="rect1668" x="69.84" y="40.71" width="29.811" height="29.811" rx="6.6099" ry="6.6099" stroke-width="3"/>
   <rect id="rect1670" x="69.84" y="40.71" width="29.811" height="29.811" rx="6.6099" ry="6.6099" stroke-width="3.4"/>
   <rect id="rect1672" x="69.84" y="40.71" width="29.811" height="29.811" rx="6.6099" ry="6.6099" stroke-width="3.8"/>
   <rect id="rect1674" x="69.84" y="40.71" width="29.811" height="29.811" rx="6.6099" ry="6.6099" stroke-width="4.2"/>
   <rect id="rect1676" x="69.84" y="40.71" width="29.811" height="29.811" rx="6.6099" ry="6.6099" stroke-width="4.6"/>
   <rect id="rect1678" x="69.84" y="40.71" width="29.811" height="29.811" rx="6.6099" ry="6.6099" stroke-width="5"/>
  </g>
  <rect id="rect849-5" x="2.5579" y="2.5293" width="29.087" height="29.087" rx="6.4495" ry="6.4495" fill="url(#radialGradient886)" stroke-linecap="round" stroke-width="2.6877"/>
  <path id="path870" transform="scale(.26458)" d="m31.112 9.5605v29.789h29.009c2.9373 0 5.3027-2.3654 5.3027-5.3027v-24.486z" fill-opacity=".26911" stroke-linecap="square" stroke-width="11.339"/>
  <path id="rect859" transform="scale(.26458)" d="m49.086 9.5605v29.789h36.836c2.9373 0 5.3027-2.3654 5.3027-5.3027v-24.486h-42.139zm-15.926 65.83c-4.698 0-8.4785 3.7825-8.4785 8.4805v33.771c2.8801 1.1925 6.0402 1.8535 9.3613 1.8535h61.186c3.3217 0 6.4828-0.66061 9.3633-1.8535v-33.771c0-4.698-3.7825-8.4805-8.4805-8.4805h-62.951zm-16.264 17.227c-1.6417-1e-6 -2.9648 1.3212-2.9648 2.9629v5.9277c0 1.6417 1.3231 2.9629 2.9648 2.9629 1.6417 0 2.9629-1.3212 2.9629-2.9629v-5.9277c0-1.6417-1.3212-2.9629-2.9629-2.9629zm95.23 0c-1.6417-1e-6 -2.9629 1.3212-2.9629 2.9629v5.9277c0 1.6417 1.3212 2.9629 2.9629 2.9629 1.6417 0 2.9629-1.3212 2.9629-2.9629v-5.9277c0-1.6417-1.3212-2.9629-2.9629-2.9629z" fill="url(#linearGradient894)" stroke-linecap="square" stroke-width="11.339"/>
  <rect id="rect872" x="20.441" y="4.5183" width="2.1629" height="4.5595" rx="0" ry="0" fill="#545658" stroke-linecap="square" stroke-width="3"/>
 </g>
</svg>
